Java IDE.svg

<?xml version="1.0" encoding="UTF-8"?>
<svg xmlns="http://www.w3.org/2000/svg" xmlns:xlink="http://www.w3.org/1999/xlink" width="100pt" height="100pt" viewBox="0 0 100 100" version="1.1">
<g id="surface1">
<path style=" stroke:none;fill-rule:evenodd;fill:rgb(32.54902%,50.980392%,63.137255%);fill-opacity:1;" d="M 36.875 77.5 C 36.875 77.5 33.125 80 39.375 80.625 C 48.125 81.25 51.875 81.25 60.625 79.375 C 60.625 79.375 63.125 80.625 66.25 81.875 C 46.875 90.625 21.875 81.875 36.875 77.5 M 35 66.25 C 35 66.25 30.625 69.375 37.5 70 C 46.25 70.625 53.125 71.25 64.375 68.75 C 64.375 68.75 66.25 70.625 68.75 71.25 C 44.375 78.125 17.5 71.875 35 66.25 "/>
<path style=" stroke:none;fill-rule:evenodd;fill:rgb(90.588235%,43.529412%,0%);fill-opacity:1;" d="M 55 48.125 C 60 53.75 53.75 58.75 53.75 58.75 C 53.75 58.75 66.25 52.5 60.625 44.375 C 55 36.875 51.25 33.125 73.125 20.625 C 73.125 20.625 38.75 28.75 55 48.125 "/>
<path style=" stroke:none;fill-rule:evenodd;fill:rgb(32.54902%,50.980392%,63.137255%);fill-opacity:1;" d="M 81.25 85.625 C 81.25 85.625 84.375 88.125 78.125 90 C 66.875 93.125 30.625 94.375 20.625 90 C 16.875 88.75 23.75 86.25 25.625 85.625 C 28.125 85 29.375 85 29.375 85 C 25.625 82.5 3.125 90.625 18.125 93.125 C 58.75 99.375 91.875 90 81.25 85.625 M 38.75 55 C 38.75 55 20.625 59.375 32.5 60.625 C 37.5 61.25 47.5 61.25 56.875 60.625 C 64.375 60 71.875 58.75 71.875 58.75 C 71.875 58.75 69.375 60 67.5 61.25 C 48.75 66.25 12.5 63.75 23.125 58.75 C 31.875 54.375 38.75 55 38.75 55 M 71.875 73.125 C 90.625 63.125 81.875 53.75 76.25 55 C 74.375 55.625 73.75 56.25 73.75 56.25 C 73.75 56.25 74.375 55.625 75.625 55 C 87.5 50.625 96.875 66.875 71.875 73.125 C 71.875 73.75 71.875 73.75 71.875 73.125 "/>
<path style=" stroke:none;fill-rule:evenodd;fill:rgb(90.588235%,43.529412%,0%);fill-opacity:1;" d="M 60.625 0 C 60.625 0 71.25 10.625 50.625 26.25 C 34.375 38.75 46.875 46.25 50.625 54.375 C 41.25 46.25 33.75 38.75 38.75 31.875 C 45.625 21.25 65 16.875 60.625 0 "/>
<path style=" stroke:none;fill-rule:evenodd;fill:rgb(32.54902%,50.980392%,63.137255%);fill-opacity:1;" d="M 40.625 99.375 C 58.75 100.625 86.875 98.75 87.5 90 C 87.5 90 86.25 93.125 72.5 95.625 C 56.875 98.75 37.5 98.125 26.25 96.25 C 26.875 96.875 28.75 98.75 40.625 99.375 "/>
</g>
</svg>

<?xml version="1.0" encoding="utf-8"?>
<svg version="1.0" id="Layer_1" xmlns="http://www.w3.org/2000/svg" xmlns:xlink="http://www.w3.org/1999/xlink" x="0px" y="0px"
	 width="100px" height="100px" viewBox="0 0 100 100" enable-background="new 0 0 100 100" xml:space="preserve">
<g id="surface1">
	<path fill-rule="evenodd" clip-rule="evenodd" fill="#5382A1" d="M36.9,77.5c0,0-3.8,2.5,2.5,3.1c8.8,0.6,12.5,0.6,21.3-1.3
		c0,0,2.5,1.3,5.6,2.5C46.9,90.6,21.9,81.9,36.9,77.5 M35,66.3c0,0-4.4,3.1,2.5,3.8c8.8,0.6,15.6,1.3,26.9-1.3c0,0,1.9,1.9,4.4,2.5
		C44.4,78.1,17.5,71.9,35,66.3"/>
	<path fill-rule="evenodd" clip-rule="evenodd" fill="#E76F00" d="M55,48.1c5,5.6-1.3,10.6-1.3,10.6s12.5-6.3,6.9-14.4
		c-5.6-7.5-9.4-11.3,12.5-23.8C73.1,20.6,38.8,28.8,55,48.1"/>
	<path fill-rule="evenodd" clip-rule="evenodd" fill="#5382A1" d="M81.3,85.6c0,0,3.1,2.5-3.1,4.4c-11.3,3.1-47.5,4.4-57.5,0
		c-3.8-1.3,3.1-3.8,5-4.4c2.5-0.6,3.8-0.6,3.8-0.6c-3.8-2.5-26.3,5.6-11.3,8.1C58.8,99.4,91.9,90,81.3,85.6 M38.8,55
		c0,0-18.1,4.4-6.3,5.6c5,0.6,15,0.6,24.4,0c7.5-0.6,15-1.9,15-1.9s-2.5,1.3-4.4,2.5c-18.8,5-55,2.5-44.4-2.5
		C31.9,54.4,38.8,55,38.8,55 M71.9,73.1c18.8-10,10-19.4,4.4-18.1c-1.9,0.6-2.5,1.3-2.5,1.3s0.6-0.6,1.9-1.3
		C87.5,50.6,96.9,66.9,71.9,73.1C71.9,73.8,71.9,73.8,71.9,73.1"/>
	<path fill-rule="evenodd" clip-rule="evenodd" fill="#E76F00" d="M60.6,0c0,0,10.6,10.6-10,26.3c-16.3,12.5-3.8,20,0,28.1
		c-9.4-8.1-16.9-15.6-11.9-22.5C45.6,21.3,65,16.9,60.6,0"/>
	<path fill-rule="evenodd" clip-rule="evenodd" fill="#5382A1" d="M40.6,99.4c18.1,1.3,46.3-0.6,46.9-9.4c0,0-1.3,3.1-15,5.6
		c-15.6,3.1-35,2.5-46.3,0.6C26.9,96.9,28.8,98.8,40.6,99.4"/>
</g>
</svg>
